X:1
T:The Preacher and the Slave
M:4/4
L:1/16
K:G
 G3 A| B4 A3 G A4 G3 E| D12 G3 A| B4 B3 B d4 d3 B| A12 G3 A| B4 A3 G A4 G3 E|\
 D12 G3 A| B4 A3 G A4 G3 F| G12 B3 d| d12 d3 B| A12 A3 B| c4 c3 c c4 B3 A|\
 B8 z4 B3 c| d12 B B2 A| G12 G3 E| D4 G3 B A4 G3 F| G12||
